public/assets/img/tasks/task2/heart-icon.svg

<svg width="37" height="37" viewBox="0 0 37 37" fill="none" xmlns="http://www.w3.org/2000/svg">
<foreignObject x="-82.3711" y="-71.7507" width="201.719" height="198.208"><div xmlns="http://www.w3.org/1999/xhtml" style="backdrop-filter:blur(8.05px);clip-path:url(#bgblur_0_663_4036_clip_path);height:100%;width:100%"></div></foreignObject><g filter="url(#filter0_dd_663_4036)" data-figma-bg-blur-radius="16.1">
<path fill-rule="evenodd" clip-rule="evenodd" d="M6.50885 8.26947C8.06806 6.7099 10.1332 5.75871 12.3318 5.58741C14.5305 5.41611 16.718 6.03596 18.4999 7.33522C20.3827 5.97304 22.709 5.36915 25.0166 5.64359C27.3242 5.91803 29.444 7.05071 30.9548 8.81647C32.4655 10.5822 33.2565 12.8518 33.1706 15.1741C33.0847 17.4963 32.1281 19.7012 30.491 21.3505L21.7698 30.0717C20.9025 30.9388 19.7263 31.4259 18.4999 31.4259C17.2736 31.4259 16.0974 30.9388 15.2301 30.0717L6.50885 21.3521C4.77427 19.6174 3.7998 17.2647 3.7998 14.8115C3.7998 12.3584 4.77427 10.0042 6.50885 8.26947Z" fill="url(#paint0_linear_663_4036)"/>
<path d="M12.418 6.69128C14.3533 6.54053 16.2791 7.0867 17.8477 8.23035L18.4971 8.70398L19.1494 8.2323C20.8067 7.03334 22.8545 6.5015 24.8857 6.74304C26.9171 6.98463 28.7834 7.98259 30.1133 9.53699C31.4429 11.0912 32.139 13.0887 32.0635 15.1327C31.9879 17.1755 31.1473 19.1157 29.708 20.5673L20.9863 29.288C20.3267 29.9474 19.4327 30.3182 18.5 30.3182C17.5673 30.3182 16.6723 29.9474 16.0127 29.288H16.0117L7.29199 20.5692C5.76511 19.0422 4.90723 16.9708 4.90723 14.8114C4.90726 12.7869 5.66157 10.8392 7.01367 9.34558L7.29199 9.05261C8.66451 7.67979 10.4826 6.84207 12.418 6.69128Z" stroke="#FFC30B" stroke-opacity="0.38" stroke-width="2.21519"/>
</g>
<defs>
<filter id="filter0_dd_663_4036" x="-82.3711" y="-71.7507" width="201.719" height="198.208" filterUnits="userSpaceOnUse" color-interpolation-filters="sRGB">
<feFlood flood-opacity="0" result="BackgroundImageFix"/>
<feColorMatrix in="SourceAlpha" type="matrix" values="0 0 0 0 0 0 0 0 0 0 0 0 0 0 0 0 0 0 127 0" result="hardAlpha"/>
<feOffset dy="8.86076"/>
<feGaussianBlur stdDeviation="25.9177"/>
<feComposite in2="hardAlpha" operator="out"/>
<feColorMatrix type="matrix" values="0 0 0 0 0.917647 0 0 0 0 0.0117647 0 0 0 0 0 0 0 0 0.56 0"/>
<feBlend mode="normal" in2="BackgroundImageFix" result="effect1_dropShadow_663_4036"/>
<feColorMatrix in="SourceAlpha" type="matrix" values="0 0 0 0 0 0 0 0 0 0 0 0 0 0 0 0 0 0 127 0" result="hardAlpha"/>
<feOffset dy="8.86076"/>
<feGaussianBlur stdDeviation="43.0854"/>
<feComposite in2="hardAlpha" operator="out"/>
<feColorMatrix type="matrix" values="0 0 0 0 0.917647 0 0 0 0 0.0117647 0 0 0 0 0 0 0 0 0.53 0"/>
<feBlend mode="normal" in2="effect1_dropShadow_663_4036" result="effect2_dropShadow_663_4036"/>
<feBlend mode="normal" in="SourceGraphic" in2="effect2_dropShadow_663_4036" result="shape"/>
</filter>
<clipPath id="bgblur_0_663_4036_clip_path" transform="translate(82.3711 71.7507)"><path fill-rule="evenodd" clip-rule="evenodd" d="M6.50885 8.26947C8.06806 6.7099 10.1332 5.75871 12.3318 5.58741C14.5305 5.41611 16.718 6.03596 18.4999 7.33522C20.3827 5.97304 22.709 5.36915 25.0166 5.64359C27.3242 5.91803 29.444 7.05071 30.9548 8.81647C32.4655 10.5822 33.2565 12.8518 33.1706 15.1741C33.0847 17.4963 32.1281 19.7012 30.491 21.3505L21.7698 30.0717C20.9025 30.9388 19.7263 31.4259 18.4999 31.4259C17.2736 31.4259 16.0974 30.9388 15.2301 30.0717L6.50885 21.3521C4.77427 19.6174 3.7998 17.2647 3.7998 14.8115C3.7998 12.3584 4.77427 10.0042 6.50885 8.26947Z"/>
</clipPath><linearGradient id="paint0_linear_663_4036" x1="18.4884" y1="5.55945" x2="18.4884" y2="31.4259" gradientUnits="userSpaceOnUse">
<stop stop-color="#EA0300"/>
<stop offset="1" stop-color="#840715"/>
</linearGradient>
</defs>
</svg>

<svg xmlns="http://www.w3.org/2000/svg" width="37" height="37" fill="none" viewBox="0 0 37 37"><foreignObject width="201.719" height="198.208" x="-82.371" y="-71.751"><div xmlns="http://www.w3.org/1999/xhtml" clip-path="url(#a)" style="backdrop-filter:blur(8.05px);height:100%;width:100%"/></foreignObject><g filter="url(#b)"><path fill="url(#c)" fill-rule="evenodd" d="M6.509 8.27a9.25 9.25 0 0 1 11.99-.935 9.253 9.253 0 0 1 11.992 14.016l-8.721 8.72a4.625 4.625 0 0 1-6.54 0l-8.72-8.718a9.25 9.25 0 0 1 0-13.083" clip-rule="evenodd"/><path stroke="#ffc30b" stroke-opacity=".38" stroke-width="2.215" d="M12.418 6.691a8.14 8.14 0 0 1 5.43 1.54l.65.473.651-.472a8.146 8.146 0 0 1 10.559 12.335l-8.722 8.721a3.517 3.517 0 0 1-4.973 0h-.001l-8.72-8.719a8.144 8.144 0 0 1-.278-11.223l.278-.293a8.14 8.14 0 0 1 5.126-2.362Z"/></g><defs><linearGradient id="c" x1="18.488" x2="18.488" y1="5.559" y2="31.426" gradientUnits="userSpaceOnUse"><stop stop-color="#ea0300"/><stop offset="1" stop-color="#840715"/></linearGradient><clipPath id="a" transform="translate(82.371 71.75)"><path fill-rule="evenodd" d="M6.509 8.27a9.25 9.25 0 0 1 11.99-.935 9.253 9.253 0 0 1 11.992 14.016l-8.721 8.72a4.625 4.625 0 0 1-6.54 0l-8.72-8.718a9.25 9.25 0 0 1 0-13.083" clip-rule="evenodd"/></clipPath><filter id="b" width="201.719" height="198.208" x="-82.371" y="-71.751" color-interpolation-filters="sRGB" filterUnits="userSpaceOnUse"><feFlood flood-opacity="0" result="BackgroundImageFix"/><feColorMatrix in="SourceAlpha" result="hardAlpha" values="0 0 0 0 0 0 0 0 0 0 0 0 0 0 0 0 0 0 127 0"/><feOffset dy="8.861"/><feGaussianBlur stdDeviation="25.918"/><feComposite in2="hardAlpha" operator="out"/><feColorMatrix values="0 0 0 0 0.917647 0 0 0 0 0.0117647 0 0 0 0 0 0 0 0 0.56 0"/><feBlend in2="BackgroundImageFix" result="effect1_dropShadow_663_4036"/><feColorMatrix in="SourceAlpha" result="hardAlpha" values="0 0 0 0 0 0 0 0 0 0 0 0 0 0 0 0 0 0 127 0"/><feOffset dy="8.861"/><feGaussianBlur stdDeviation="43.085"/><feComposite in2="hardAlpha" operator="out"/><feColorMatrix values="0 0 0 0 0.917647 0 0 0 0 0.0117647 0 0 0 0 0 0 0 0 0.53 0"/><feBlend in2="effect1_dropShadow_663_4036" result="effect2_dropShadow_663_4036"/><feBlend in="SourceGraphic" in2="effect2_dropShadow_663_4036" result="shape"/></filter></defs></svg>
